src/lib/packages/icons/src/assets/filled/image.svg

<svg width="24" height="24" viewBox="0 0 24 24" fill="none" xmlns="http://www.w3.org/2000/svg">
<path d="M18 3.25H6C3.582 3.25 2.25 4.582 2.25 7V17C2.25 19.418 3.582 20.75 6 20.75H18C20.418 20.75 21.75 19.418 21.75 17V7C21.75 4.582 20.418 3.25 18 3.25ZM6 4.75H18C19.577 4.75 20.25 5.423 20.25 7V14.25L15.71 9.70996C15.32 9.31996 14.68 9.31996 14.29 9.70996L9.34998 14.6499C9.15998 14.8399 8.84002 14.8399 8.65002 14.6499L7.70996 13.71C7.31996 13.32 6.68004 13.32 6.29004 13.71L3.75 16.25V7C3.75 5.423 4.423 4.75 6 4.75ZM6.75 9C6.75 8.31 7.30404 7.75 7.99304 7.75H8.00305C8.69205 7.75 9.25098 8.31 9.25098 9C9.25098 9.69 8.69305 10.25 8.00305 10.25C7.31405 10.25 6.75 9.69 6.75 9Z" fill="currentColor"/>
</svg>

<svg xmlns="http://www.w3.org/2000/svg" width="24" height="24" fill="none"><path fill="currentColor" d="M18 3.25H6C3.582 3.25 2.25 4.582 2.25 7v10c0 2.418 1.332 3.75 3.75 3.75h12c2.418 0 3.75-1.332 3.75-3.75V7c0-2.418-1.332-3.75-3.75-3.75ZM6 4.75h12c1.577 0 2.25.673 2.25 2.25v7.25l-4.54-4.54c-.39-.39-1.03-.39-1.42 0l-4.94 4.94c-.19.19-.51.19-.7 0l-.94-.94c-.39-.39-1.03-.39-1.42 0l-2.54 2.54V7c0-1.577.673-2.25 2.25-2.25ZM6.75 9c0-.69.554-1.25 1.243-1.25h.01A1.25 1.25 0 1 1 6.75 9Z"/></svg>
